Adwaita++/apps/scalable/modelio.svg

<svg enable-background="new" height="128" viewBox="0 0 128 128" width="128" xmlns="http://www.w3.org/2000/svg">
  <g transform="matrix(.86666673 0 0 .86666673 9.533387 -142.40002)">
    <path d="m132.07686 238.15385a69.230763 69.230763 0 0 1 -69.23076 69.23077 69.230763 69.230763 0 0 1 -69.2307765-69.23077 69.230763 69.230763 0 0 1 69.2307765-69.23076 69.230763 69.230763 0 0 1 69.23076 69.23076z" fill="#deddda"/>
    <path d="m132.07686 235.84616a69.230763 69.230763 0 0 1 -69.23076 69.23076 69.230763 69.230763 0 0 1 -69.2307765-69.23076 69.230763 69.230763 0 0 1 69.2307765-69.23077 69.230763 69.230763 0 0 1 69.23076 69.23077z" fill="#78110e"/>
    <path d="m115.57617 92.523438a59.999999 59.999999 0 0 0 1.07813-1.757813 59.999999 59.999999 0 0 0 2.60937-5.400391 59.999999 59.999999 0 0 0 2.05664-5.634765 59.999999 59.999999 0 0 0 1.48438-5.810547 59.999999 59.999999 0 0 0 .89648-5.929688 59.999999 59.999999 0 0 0 .29883-5.990234 59.999999 59.999999 0 0 0 -.15039-4.244141 59.999999 59.999999 0 0 0 -.72266-5.953125 59.999999 59.999999 0 0 0 -1.3125-5.853515 59.999999 59.999999 0 0 0 -1.89257-5.691407 59.999999 59.999999 0 0 0 -2.44922-5.472656 59.999999 59.999999 0 0 0 -2.98438-5.203125 59.999999 59.999999 0 0 0 -.125-.173828l-43.203124 23.535156-6.099609 4.234375.169922 3.728516z" fill="#c5c5c5" transform="matrix(1.1538461 0 0 1.1538461 -11.000061 164.3077)"/>
    <g transform="translate(1.668032 -1.041552)">
      <circle cx="62.332" cy="237.81" fill="#b31615" r="46.154"/>
      <g fill="#fff">
        <path d="m62.331894 191.65619a46.153795 46.153795 0 0 0 -46.153795 46.15379 46.153795 46.153795 0 0 0 .03547 1.00077 46.153795 46.153795 0 0 1 46.118324-45.44516 46.153795 46.153795 0 0 1 46.118327 45.15219 46.153795 46.153795 0 0 0 .0355-.7078 46.153795 46.153795 0 0 0 -46.15381-46.15379z"/>
        <path d="m62.331902 284.1954a46.153795 46.153795 0 0 0 46.153798-46.15379 46.153795 46.153795 0 0 0 -.0355-1.00077 46.153795 46.153795 0 0 1 -46.118324 45.44516 46.153795 46.153795 0 0 1 -46.118312-45.15219 46.153795 46.153795 0 0 0 -.03548.7078 46.153795 46.153795 0 0 0 46.153793 46.15379z" opacity=".5"/>
      </g>
    </g>
    <g transform="translate(162.52668 -1.26964)">
      <path d="m-85.154022 216.23131a4.6151156 4.7148707 0 0 0 -4.545954 4.78121v34.30613a4.6151156 4.7148707 0 1 0 9.22984 0v-34.30613a4.6151156 4.7148707 0 0 0 -4.683886-4.78121z" fill="#fff"/>
      <path d="m-98.399734 225.46201a4.6150979 4.1059907 0 0 0 -4.546406 4.16294v26.31107a4.6150979 4.1059907 0 1 0 9.229861 0v-26.31107a4.6150979 4.1059907 0 0 0 -4.683455-4.16294z" fill="#c5c5c5"/>
      <path d="m-112.03939 216.23134a4.6151133 4.714895 0 0 0 -4.54404 4.78123v34.30631a4.6151133 4.714895 0 1 0 9.22984 0v-34.30631a4.6151133 4.714895 0 0 0 -4.6858-4.78123z" fill="#fff"/>
    </g>
  </g>
</svg>

<svg xmlns="http://www.w3.org/2000/svg" xmlns:xlink="http://www.w3.org/1999/xlink" style="enable-background:new" width="128" height="128" version="1.0" viewBox="0 0 128 128">
 <title id="title4162">
  Adwaita Icon Template
 </title>
 <defs>
  <linearGradient id="linearGradient950">
   <stop style="stop-color:#9a9996" id="stop946" offset="0"/>
   <stop style="stop-color:#77767b" id="stop948" offset="1"/>
  </linearGradient>
  <linearGradient id="linearGradient1001" x1="1660.857" x2="1662.99" y1="806.297" y2="812.882" gradientTransform="matrix(1.8293937,-0.81599442,0.81599442,1.8293937,-3645.9624,100.02949)" gradientUnits="userSpaceOnUse" xlink:href="#linearGradient950"/>
  <clipPath id="clipPath5154" clipPathUnits="userSpaceOnUse">
   <circle cx="128" cy="924.362" r="109.647" style="fill:url(#radialGradient5158)"/>
  </clipPath>
  <clipPath id="clipPath977" clipPathUnits="userSpaceOnUse">
   <circle cx="128" cy="924.362" r="109.647" style="fill:url(#radialGradient5158)"/>
  </clipPath>
  <clipPath id="clipPath4688" clipPathUnits="userSpaceOnUse">
   <path d="m 106.42383,889.60156 c -2.2448,-0.0524 -4.09304,1.75264 -4.09375,3.99805 v 32.64453 32.64453 c -4e-5,3.07923 3.33305,5.004 6,3.46485 l 28.26953,-16.32227 28.27148,-16.32227 c 2.66559,-1.54001 2.66559,-5.38772 0,-6.92773 l -28.27148,-16.32227 -28.26953,-16.32226 c -0.58054,-0.3353 -1.23603,-0.51932 -1.90625,-0.53516 z" style="fill:url(#radialGradient4692);stroke:#a7003f;stroke-linecap:round;stroke-linejoin:round"/>
  </clipPath>
  <clipPath id="clipPath4564" clipPathUnits="userSpaceOnUse">
   <circle style="fill:url(#radialGradient4568)" cx="128" cy="924.362" r="109.647"/>
  </clipPath>
  <clipPath id="clipPath6215" clipPathUnits="userSpaceOnUse">
   <path d="m 105.17325,806.18572 c -3.06859,0.56361 -6.11393,1.24721 -9.129005,2.04923 -3.838255,1.06506 -7.62084,2.32142 -11.333578,3.76438 -3.712189,1.44307 -7.34989,3.07087 -10.899472,4.87732 -3.549153,1.80656 -7.005749,3.78947 -10.35684,5.94129 -3.351877,2.15253 -6.593991,4.47137 -9.714191,6.94783 -3.119992,2.47544 -6.114241,5.10535 -8.971529,7.87988 -0.367219,0.38909 -0.731819,0.78065 -1.093777,1.17464 2.60205,17.85956 16.832359,40.03752 30.863064,55.74236 -4.76734,8.84435 -7.265993,18.73329 -7.272057,28.78068 0.02104,2.87431 0.246096,5.7435 0.673482,8.58593 -20.257302,-9.18513 -43.077023,-26.53494 -52.798465,-47.36396 -0.440667,1.15171 -0.863474,2.31018 -1.268271,3.47498 -1.176789,3.80495 -2.162562,7.66637 -2.953625,11.56979 -0.79154,3.90311 -1.3874065,7.84335 -1.7853678,11.80598 -0.39733,3.96334 -0.5961891,7.94407 -0.5958321,11.92728 -4.394e-4,2.81936 0.098928,5.63785 0.2979155,8.45018 0.282275,3.97319 0.763088,7.92978 1.4406374,11.85493 0.625626,3.51826 1.408798,7.00668 2.347153,10.45473 16.778133,6.68355 43.114514,5.45001 63.748015,1.14301 6.818545,11.02763 16.987182,19.58379 29.018153,24.41667 -18.071844,12.93645 -44.490188,24.02095 -67.37308,22.03245 1.384097,1.665 2.813203,3.2921 4.285735,4.8794 2.774977,2.8571 5.691103,5.5737 8.737453,8.1395 3.046107,2.5658 6.218619,4.9777 9.505651,7.2266 3.287242,2.2488 6.684891,4.3319 10.180217,6.2413 3.495379,1.9096 7.084075,3.6433 10.752641,5.1944 3.66896,1.5509 7.413193,2.9174 11.218668,4.0942 1.438565,0.3959 2.884421,0.7648 4.336807,1.1066 14.138748,-11.1844 26.206378,-34.5828 32.780368,-54.56406 12.95816,-0.38251 25.45395,-4.90132 35.65955,-12.89544 2.15922,22.12638 -1.46693,50.5581 -14.64692,69.3832 3.06859,-0.5636 6.11393,-1.2473 9.129,-2.0493 3.83826,-1.0651 7.62084,-2.3214 11.33358,-3.7644 3.71219,-1.4431 7.34989,-3.0709 10.89947,-4.8773 3.54915,-1.8066 7.00575,-3.7895 10.35684,-5.9413 3.35188,-2.1525 6.59399,-4.4714 9.71419,-6.9478 3.11999,-2.4754 6.11424,-5.1054 8.97153,-7.8799 0.36722,-0.3891 0.73182,-0.7806 1.09378,-1.1746 -2.60204,-17.85957 -16.83236,-40.03755 -30.86307,-55.74238 4.76735,-8.84435 7.266,-18.7333 7.27207,-28.78069 -0.021,-2.8743 -0.24611,-5.74349 -0.6735,-8.58592 20.25731,9.18513 43.07704,26.53494 52.79848,47.36396 0.44067,-1.15171 0.86347,-2.31018 1.26827,-3.47499 1.17679,-3.80495 2.16256,-7.66636 2.95362,-11.56978 0.79154,-3.90311 1.38741,-7.84335 1.78537,-11.80598 0.39733,-3.96334 0.59619,-7.94408 0.59583,-11.92729 4.4e-4,-2.81936 -0.0989,-5.63784 -0.29791,-8.45017 -0.28228,-3.97319 -0.76309,-7.92978 -1.44064,-11.85493 -0.62776,-3.53416 -1.41449,-7.03823 -2.35779,-10.50154 -20.56165,-7.32804 -45.89823,-4.79548 -63.74906,-1.11372 -6.81835,-11.01918 -16.98234,-19.56874 -29.00647,-24.39915 18.07184,-12.93645 44.49019,-24.02091 67.37307,-22.03241 -1.38409,-1.66502 -2.8132,-3.2921 -4.28573,-4.87944 -2.77498,-2.85712 -5.6911,-5.57368 -8.73745,-8.13949 -3.04611,-2.56581 -6.21862,-4.97769 -9.50565,-7.22659 -3.28724,-2.24885 -6.68489,-4.3319 -10.18022,-6.24135 -3.49538,-1.90963 -7.08407,-3.64325 -10.75264,-5.19438 -3.66896,-1.55092 -7.41319,-2.91736 -11.21867,-4.09421 -1.42662,-0.39262 -2.86041,-0.75869 -4.30063,-1.09804 -14.14688,11.18369 -26.2293,34.57475 -32.8107,54.55552 -12.96018,0.38127 -25.4582,4.90015 -35.665394,12.89544 -2.15922,-22.12637 1.466931,-50.55807 14.646924,-69.38315 z" style="fill:url(#radialGradient6219)"/>
  </clipPath>
 </defs>
 <g id="layer1" transform="matrix(0.86666673,0,0,0.86666673,9.5333867,-142.40002)">
  <g id="layer9">
   <path d="M 132.07686,238.15385 A 69.230763,69.230763 0 0 1 62.8461,307.38462 69.230763,69.230763 0 0 1 -6.3846765,238.15385 69.230763,69.230763 0 0 1 62.8461,168.92309 a 69.230763,69.230763 0 0 1 69.23076,69.23076 z" style="fill:#deddda"/>
   <path style="fill:#78110e" d="M 132.07686,235.84616 A 69.230763,69.230763 0 0 1 62.8461,305.07692 69.230763,69.230763 0 0 1 -6.3846765,235.84616 69.230763,69.230763 0 0 1 62.8461,166.61539 a 69.230763,69.230763 0 0 1 69.23076,69.23077 z"/>
   <path style="fill:#c5c5c5" d="M 115.57617 92.523438 A 59.999999 59.999999 0 0 0 116.6543 90.765625 A 59.999999 59.999999 0 0 0 119.26367 85.365234 A 59.999999 59.999999 0 0 0 121.32031 79.730469 A 59.999999 59.999999 0 0 0 122.80469 73.919922 A 59.999999 59.999999 0 0 0 123.70117 67.990234 A 59.999999 59.999999 0 0 0 124 62 A 59.999999 59.999999 0 0 0 123.84961 57.755859 A 59.999999 59.999999 0 0 0 123.12695 51.802734 A 59.999999 59.999999 0 0 0 121.81445 45.949219 A 59.999999 59.999999 0 0 0 119.92188 40.257812 A 59.999999 59.999999 0 0 0 117.47266 34.785156 A 59.999999 59.999999 0 0 0 114.48828 29.582031 A 59.999999 59.999999 0 0 0 114.36328 29.408203 L 71.160156 52.943359 L 65.060547 57.177734 L 65.230469 60.90625 L 115.57617 92.523438 z" transform="matrix(1.1538461,0,0,1.1538461,-11.000061,164.3077)"/>
   <g transform="translate(1.6680317,-1.0415515)">
    <circle cx="62.332" cy="237.81" r="46.154" style="fill:#b31615"/>
    <path style="fill:#ffffff" d="m 62.331894,191.65619 a 46.153795,46.153795 0 0 0 -46.153795,46.15379 46.153795,46.153795 0 0 0 0.03547,1.00077 46.153795,46.153795 0 0 1 46.118324,-45.44516 46.153795,46.153795 0 0 1 46.118327,45.15219 46.153795,46.153795 0 0 0 0.0355,-0.7078 46.153795,46.153795 0 0 0 -46.15381,-46.15379 z"/>
    <path d="m 62.331902,284.1954 a 46.153795,46.153795 0 0 0 46.153798,-46.15379 46.153795,46.153795 0 0 0 -0.0355,-1.00077 46.153795,46.153795 0 0 1 -46.118324,45.44516 46.153795,46.153795 0 0 1 -46.118312,-45.15219 46.153795,46.153795 0 0 0 -0.03548,0.7078 46.153795,46.153795 0 0 0 46.153793,46.15379 z" style="opacity:0.5;fill:#ffffff"/>
   </g>
   <g transform="translate(162.52668,-1.2696399)">
    <g>
     <path style="fill:#ffffff" d="m -85.154022,216.23131 a 4.6151156,4.7148707 0 0 0 -4.545954,4.78121 v 34.30613 a 4.6151156,4.7148707 0 1 0 9.22984,0 v -34.30613 a 4.6151156,4.7148707 0 0 0 -4.683886,-4.78121 z"/>
     <path style="fill:#c5c5c5" d="m -98.399734,225.46201 a 4.6150979,4.1059907 0 0 0 -4.546406,4.16294 v 26.31107 a 4.6150979,4.1059907 0 1 0 9.229861,0 v -26.31107 a 4.6150979,4.1059907 0 0 0 -4.683455,-4.16294 z"/>
     <path style="fill:#ffffff" d="m -112.03939,216.23134 a 4.6151133,4.714895 0 0 0 -4.54404,4.78123 v 34.30631 a 4.6151133,4.714895 0 1 0 9.22984,0 v -34.30631 a 4.6151133,4.714895 0 0 0 -4.6858,-4.78123 z"/>
    </g>
   </g>
  </g>
 </g>
</svg>
